X: 15752
T: Good Alibi, The
R: reel
M: 4/4
K: Dmajor
A2FB AFEF|DEFA BABd|ef~f2 edBd|efaf edBd|
ADFB AFEF|DEFA BABd|ef~f2 edBd|1 efdB d2cB:|2 efdB d2 de||
faaf afed|gbeg bgfe|faaf afed|Beed BcdB|
ADFB AFEF|DEFA BABd|ef~f2 edBd|1 efdB d2 de:|2 efdB d2cB:|

